X: 116
T: Missa Pro fidelibus defunctis / Communio II
N: Derived from Rue1024g.b-Missa_Pro_fidelibus_defunctis-Communio_II.krn
C: Pierre de la Rue
%%abc-version 2.0
%%abcx-abcm2ps-target-version 5.9.1 (29 Sep 2008)
%%abc-creator hum2abc beta
%%abcx-conversion-date 2019/02/17 08:01:14
%%abc-edited-by Jesse Rodin
%%abc-edited-by Chris Gage 05-02-2013
%%abcx-initial-encoding-date 2013/08/01/
%%humdrum-veritas 1184087747
%%humdrum-veritas-data 2402165351
%%linebreak <none>
%%barnumbers 0
L: 1/4
M: 2/1
Q: 1/2=120
%%staves [1 2 3 4]
V: 1 clef=treble
V: 2 clef=treble-8
V: 3 clef=treble-8
V: 4 clef=bass
K: C
[V:1] A8 | 
[V:2] f8 | 
[V:3] c8 | 
[V:4] F,8 | 
[V:1] c8 | 
[V:2] f8 | 
[V:3] c8 | 
[V:4] A,8 | 
[V:1] B8 | 
[V:2] g8 | 
[V:3] d8 | 
[V:4] G,8 | 
[V:1] c6B2 | 
[V:2] e8 | 
[V:3] c8 | 
[V:4] C,8 | 
[V:1] A2G2G4- | 
[V:2] e8 | 
[V:3] c8 | 
[V:4] C,8 | 
[V:1] G4F4- | 
[V:2] z4d4- | 
[V:3] z4A4- | 
[V:4] z4D,4- | 
[V:1] F4G4 | 
[V:2] d4d4 | 
[V:3] A4B4 | 
[V:4] D,4G,,4 | 
[V:1] G8 | 
[V:2] d8 | 
[V:3] B8 | 
[V:4] G,,8 | 
[V:1]  [K:C] [K:clef=treble][M:3/1]z12 | 
[V:2]  [K:C] [K:clef=treble-8][M:3/1]d8f4 | 
[V:3]  [K:C] [K:clef=treble-8][M:3/1]z12 | 
[V:4]  [K:C] [K:clef=bass][M:3/1]z12 | 
[V:1] z12 | 
[V:2] e4f6d2 | 
[V:3] z12 | 
[V:4] z12 | 
[V:1] A8c4 | 
[V:2] d8c4 | 
[V:3] z12 | 
[V:4] z12 | 
[V:1] B4c6A2 | 
[V:2] d4e6f2 | 
[V:3] z12 | 
[V:4] z12 | 
[V:1] A8z4 | 
[V:2] f8f4 | 
[V:3] A8c4 | 
[V:4] F,8F,4 | 
[V:1] G8G4 | 
[V:2] d4e6c2 | 
[V:3] B4c6A2 | 
[V:4] G,4E,6F,2 | 
[V:1] A6G2F4 | 
[V:2] c4d6G2 | 
[V:3] A8z4 | 
[V:4] F,8z4 | 
[V:1] E12- | 
[V:2] G8z4 | 
[V:3] c8A4 | 
[V:4] C,8C,4- | 
[V:1] E4F6E2 | 
[V:2] [M:3/1]c12- | 
[V:3] G4A6G2 | 
[V:4] C,4F,6C,2 | 
[V:1] E12 | 
[V:2] c12 | 
[V:3] G4A6E2 | 
[V:4] C,12 | 
[V:1] [M:2/1]G8 | 
[V:2] c8- | 
[V:3] E8 | 
[V:4] [M:2/1]C,8 | 
[V:1] A8 | 
[V:2] c4A4 | 
[V:3] [M:2/1]F8 | 
[V:4] A,,8 | 
[V:1] B4c4- | 
[V:2] d4e4 | 
[V:3] G8 | 
[V:4] G,,4C,4 | 
[V:1] c2B2A2G2 | 
[V:2] c2d2e4 | 
[V:3] A8- | 
[V:4] A,,2B,,2C,4 | 
[V:1] F2E2D4- | 
[V:2] d4f4- | 
[V:3] A8 | 
[V:4] D,8- | 
[V:1] D4G4- | 
[V:2] f4e4 | 
[V:3] A8- | 
[V:4] D,4C,4 | 
[V:1] G2F2F4 | 
[V:2] d8 | 
[V:3] A8 | 
[V:4] D,8 | 
[V:1] z2G4F2 | 
[V:2] z2e4d2 | 
[V:3] G8- | 
[V:4] z4G,,4 | 
[V:1] E2D2E4 | 
[V:2] c2B2c4 | 
[V:3] G8- | 
[V:4] C,8 | 
[V:1] D8 ||  
[V:2] B8 ||  
[V:3] G8 ||  
[V:4] G,,8 ||  
[V:1]  [K:C] [K:clef=treble][M:2/1]G4A4- | 
[V:2]  [K:C] [K:clef=treble-8][M:3/1]e4f4- | 
[V:3]  [K:C] [K:clef=treble-8][M:2/1]c4c4- | 
[V:4]  [K:C] [K:clef=bass][M:2/1]C,4F,4- | 
[V:1] A4A4 | 
[V:2] f4f4 | 
[V:3] c4c4 | 
[V:4] F,4F,4 | 
[V:1] A4A4 | 
[V:2] f4f4 | 
[V:3] c4c4 | 
[V:4] F,4F,4 | 
[V:1] G4c4- | 
[V:2] e8 | 
[V:3] c8 | 
[V:4] C,8 | 
[V:1] c2BAB4 | 
[V:2] z4g4- | 
[V:3] d8 | 
[V:4] z4G,4 | 
[V:1] E4A4- | 
[V:2] g2c2f4- | 
[V:3] c6B2 | 
[V:4] A,4F,4- | 
[V:1] A2G2G4- | 
[V:2] f2e2c4 | 
[V:3] B4G4 | 
[V:4] F,2G,2E,4 | 
[V:1] G2^F2F4 | 
[V:2] d8 | 
[V:3] A8 | 
[V:4] D,8 | 
[V:1] G8- | 
[V:2] B8- | 
[V:3] G8- | 
[V:4] G,,8- | 
[V:1] G8 ||  
[V:2] B8 ||  
[V:3] G8 ||  
[V:4] G,,8 ||  



